fs/weather_snow_48_regular.svg

<svg viewBox="0 0 48 48" fill="none" xmlns="http://www.w3.org/2000/svg" height="1em" width="1em">
  <path d="M19.5 36C20.3284 36 21 36.6716 21 37.5C21 38.3284 20.3284 39 19.5 39C18.6716 39 18 38.3284 18 37.5C18 36.6716 18.6716 36 19.5 36ZM28.5 36C29.3284 36 30 36.6716 30 37.5C30 38.3284 29.3284 39 28.5 39C27.6716 39 27 38.3284 27 37.5C27 36.6716 27.6716 36 28.5 36ZM15 34C15.8284 34 16.5 34.6716 16.5 35.5C16.5 36.3284 15.8284 37 15 37C14.1716 37 13.5 36.3284 13.5 35.5C13.5 34.6716 14.1716 34 15 34ZM24 34C24.8284 34 25.5 34.6716 25.5 35.5C25.5 36.3284 24.8284 37 24 37C23.1716 37 22.5 36.3284 22.5 35.5C22.5 34.6716 23.1716 34 24 34ZM33 34C33.8284 34 34.5 34.6716 34.5 35.5C34.5 36.3284 33.8284 37 33 37C32.1716 37 31.5 36.3284 31.5 35.5C31.5 34.6716 32.1716 34 33 34ZM24.0011 8C30.3382 8 33.9331 12.1946 34.4559 17.2603L34.6158 17.2602C38.694 17.2602 42 20.5577 42 24.6253C42 28.6929 38.694 31.9904 34.6158 31.9904H13.3864C9.3082 31.9904 6.0022 28.6929 6.0022 24.6253C6.0022 20.5577 9.3082 17.2602 13.3864 17.2602L13.5463 17.2603C14.0722 12.1613 17.664 8 24.0011 8ZM24.0011 10.4952C19.74 10.4952 16.0261 13.9431 16.0261 18.7058C16.0261 19.4604 15.3699 20.0525 14.6186 20.0525L13.198 20.0525C10.604 20.0525 8.50105 22.1663 8.50105 24.7738C8.50105 27.3814 10.604 29.4952 13.198 29.4952H34.8041C37.3982 29.4952 39.5011 27.3814 39.5011 24.7738C39.5011 22.1663 37.3982 20.0525 34.8042 20.0525L33.3836 20.0525C32.6323 20.0525 31.9761 19.4604 31.9761 18.7058C31.9761 13.882 28.2621 10.4952 24.0011 10.4952Z" fill="#212121"/>
</svg>

<svg viewBox="0 0 48 48" fill="none" xmlns="http://www.w3.org/2000/svg" height="1em" width="1em">
  <path d="M19.5 36a1.5 1.5 0 1 1 0 3 1.5 1.5 0 0 1 0-3Zm9 0a1.5 1.5 0 1 1 0 3 1.5 1.5 0 0 1 0-3ZM15 34a1.5 1.5 0 1 1 0 3 1.5 1.5 0 0 1 0-3Zm9 0a1.5 1.5 0 1 1 0 3 1.5 1.5 0 0 1 0-3Zm9 0a1.5 1.5 0 1 1 0 3 1.5 1.5 0 0 1 0-3ZM24.001 8c6.337 0 9.932 4.195 10.455 9.26h.16c4.078 0 7.384 3.298 7.384 7.365 0 4.068-3.306 7.365-7.384 7.365h-21.23c-4.078 0-7.384-3.297-7.384-7.365 0-4.067 3.306-7.365 7.384-7.365h.16C14.072 12.161 17.664 8 24.001 8Zm0 2.495c-4.261 0-7.975 3.448-7.975 8.21 0 .755-.656 1.348-1.407 1.348h-1.421c-2.594 0-4.697 2.113-4.697 4.72 0 2.608 2.103 4.722 4.697 4.722h21.606c2.594 0 4.697-2.114 4.697-4.721 0-2.608-2.103-4.722-4.697-4.722h-1.42c-.752 0-1.408-.592-1.408-1.346 0-4.824-3.714-8.21-7.975-8.21Z" fill="#212121"/>
</svg>
